app/renderer/assets/image/components/button.svg

<?xml version="1.0" encoding="UTF-8"?>
<svg width="150px" height="150px" viewBox="0 0 150 150" version="1.1" xmlns="http://www.w3.org/2000/svg" xmlns:xlink="http://www.w3.org/1999/xlink">
    <!-- Generator: Sketch 46.1 (44463) - http://www.bohemiancoding.com/sketch -->
    <title>button</title>
    <desc>Created with Sketch.</desc>
    <defs>
        <linearGradient x1="23.04614%" y1="-27.2201389%" x2="77.9856373%" y2="185.288889%" id="linearGradient-1">
            <stop stop-color="#574453" offset="0%"></stop>
            <stop stop-color="#414568" offset="100%"></stop>
        </linearGradient>
        <linearGradient x1="0.0886690647%" y1="51.0717949%" x2="100.135072%" y2="51.0717949%" id="linearGradient-2">
            <stop stop-color="#272745" offset="0%"></stop>
            <stop stop-color="#281F40" offset="100%"></stop>
        </linearGradient>
        <linearGradient x1="50.0443262%" y1="58.0547771%" x2="50.0443262%" y2="99.6923064%" id="linearGradient-3">
            <stop stop-color="#B8A678" offset="0%"></stop>
            <stop stop-color="#EFCB6D" offset="100%"></stop>
        </linearGradient>
        <linearGradient x1="49.915731%" y1="37.3748979%" x2="49.9157303%" y2="100.062602%" id="linearGradient-4">
            <stop stop-color="#006AB7" offset="0%"></stop>
            <stop stop-color="#4051A3" offset="100%"></stop>
        </linearGradient>
        <linearGradient x1="24.2580189%" y1="-47.2946429%" x2="75.8851415%" y2="148.150893%" id="linearGradient-5">
            <stop stop-color="#00A3CF" offset="0%"></stop>
            <stop stop-color="#0063E2" offset="99.46%"></stop>
        </linearGradient>
        <linearGradient x1="49.9641089%" y1="-0.114705882%" x2="49.9641089%" y2="100.082353%" id="linearGradient-6">
            <stop stop-color="#6D90CF" offset="0%"></stop>
            <stop stop-color="#1084CF" offset="100%"></stop>
        </linearGradient>
    </defs>
    <g id="Page-1" stroke="none" stroke-width="1" fill="none" fill-rule="evenodd">
        <g id="button" fill-rule="nonzero">
            <polygon id="Shape" fill="url(#linearGradient-1)" points="134 106 20 106 38.4201077 76 118.035907 76"></polygon>
            <rect id="Rectangle-path" fill="url(#linearGradient-2)" x="20" y="105" width="114" height="8"></rect>
            <path d="M48,78 L48,88.3214286 C48,92.5714286 60.7340426,95 76.5,95 C92.2659574,95 105,92.5714286 105,88.3214286 L105,78 C105,78 96.106383,82.047619 75.893617,82.047619 C55.6808511,82.047619 48,78 48,78 Z" id="Shape" fill="url(#linearGradient-3)"></path>
            <path d="M123,48.3292683 C123,45.2195122 116.865169,40.2439024 112.775281,39 L40.9977528,39 C35.0674157,40.8658537 32,45.2195122 32,48.3292683 L32,76.3170732 C32,76.5243902 32.2044944,76.9390244 32.2044944,77.1463415 C32.2044944,77.3536585 32,77.7682927 32,77.9756098 C32,84.6097561 52.4494382,90 77.3977528,90 C102.346067,90 122.795506,84.6097561 122.795506,77.9756098 C122.795506,77.7682927 122.795506,77.3536585 122.591011,77.1463415 C122.591011,76.9390244 122.795506,76.5243902 122.795506,76.3170732 L122.795506,48.3292683 L123,48.3292683 Z" id="Shape" fill="url(#linearGradient-4)"></path>
            <ellipse id="Oval" fill="url(#linearGradient-5)" cx="76" cy="44.5" rx="43" ry="11.5"></ellipse>
            <ellipse id="Oval" fill="url(#linearGradient-6)" cx="77.5" cy="43.5" rx="41.5" ry="10.5"></ellipse>
        </g>
    </g>
</svg>

<svg width="150" height="150" xmlns="http://www.w3.org/2000/svg"><defs><linearGradient x1="23.046%" y1="-27.22%" x2="77.986%" y2="185.289%" id="a"><stop stop-color="#574453" offset="0%"/><stop stop-color="#414568" offset="100%"/></linearGradient><linearGradient x1=".089%" y1="51.072%" x2="100.135%" y2="51.072%" id="b"><stop stop-color="#272745" offset="0%"/><stop stop-color="#281F40" offset="100%"/></linearGradient><linearGradient x1="50.044%" y1="58.055%" x2="50.044%" y2="99.692%" id="c"><stop stop-color="#B8A678" offset="0%"/><stop stop-color="#EFCB6D" offset="100%"/></linearGradient><linearGradient x1="49.916%" y1="37.375%" x2="49.916%" y2="100.063%" id="d"><stop stop-color="#006AB7" offset="0%"/><stop stop-color="#4051A3" offset="100%"/></linearGradient><linearGradient x1="24.258%" y1="-47.295%" x2="75.885%" y2="148.151%" id="e"><stop stop-color="#00A3CF" offset="0%"/><stop stop-color="#0063E2" offset="99.46%"/></linearGradient><linearGradient x1="49.964%" y1="-.115%" x2="49.964%" y2="100.082%" id="f"><stop stop-color="#6D90CF" offset="0%"/><stop stop-color="#1084CF" offset="100%"/></linearGradient></defs><g fill="none"><path fill="url(#a)" d="M134 106H20l18.42-30h79.616z"/><path fill="url(#b)" d="M20 105h114v8H20z"/><path d="M48 78v10.321C48 92.571 60.734 95 76.5 95s28.5-2.429 28.5-6.679V78s-8.894 4.048-29.106 4.048C55.68 82.048 48 78 48 78z" fill="url(#c)"/><path d="M123 48.33c0-3.11-6.135-8.086-10.225-9.33H40.998C35.068 40.866 32 45.22 32 48.33v27.987c0 .207.204.622.204.83 0 .207-.204.621-.204.829C32 84.61 52.45 90 77.398 90c24.948 0 45.398-5.39 45.398-12.024 0-.208 0-.622-.205-.83 0-.207.205-.622.205-.829V48.33H123z" fill="url(#d)"/><ellipse fill="url(#e)" cx="76" cy="44.5" rx="43" ry="11.5"/><ellipse fill="url(#f)" cx="77.5" cy="43.5" rx="41.5" ry="10.5"/></g></svg>
